!!!COM: Hugo Wolf
!!!CNT: Deutscher
!!!TXO: Deutsche 
!!!OTL: Epiphanias
!!!OPR: Gedichte von J.W. v. Goethe
!!!ONM: No. 19
!!!ODT: 1888/
!!!LYR: Goethe
!!!ENC: Brian Bice
!!!YOR: 65 Songs for voice and piano, International Music Company, 1960
!!NB: Vocal melody and text only encoded.
**kern	**silbe
*clefG2	*
*k[f#]	*
*M4/4	*
=0	=0
2.r	.
8r	.
{8d	{Die
=1	=1
8.g	hei-
16g	-li-
8g	-gen
8g	drei
8g	Ko2-
8f#	|
8e	-nig
8f#	mit
=2	=2
4g	ih-
4b	-rem
4g}	Stern,}
8r	.
{8d	{sie
=3	=3
4g	es-
8g	-sen,
8g	sie
8g	trin-
8f#	-ken
8e	und
8f#	be-
=4	=4
4g	-zah-
8g	-len
8b	nicht
4g}	gern;}
8r	.
{8d	{sie
=5	=5
4g	es-
4b	-sen
4g	gern,
8r	.
8e	sie
=6	=6
4g	trin-
4b	-ken
4g}	gern,}
8r	.
{8e	{sie
=7	=7
4g	es-
4b	-sen,
8g	trin-
8g	-ken
8g	und
8b	be-
=8	=8
4g	-zah-
8g	-len
8b	nicht
4g}	gern.}
8r	.
{8a	{Die
=9	=9
4a	heil'-
8a	-gen
8a	drei
4a	Ko2-
8a	-nig
8a	sind
=10	=10
4a	komm-
8b	-en
8dd	all-
4a}	-hier,}
8r	.
{8a	{es
=11	=11
4a	sind
8a	ih-
8a	-rer
4.dd	drei
8cc#	und
=12	=12
8dd	sind
8cc#	nicht
8b	ih-
8dd	-rer
4a}	vier:}
8r	.
{8ccn	{und
=13	=13
4.b	wenn
8b	zu
4cc	drei-
8cc	-en
8cc	der
=14	=14
4b	vier-
4dd	-te
4b;}	wa2r,}
8r	.
{8b	{so
=15	=15
4a	wa2r
4a	ein
8a	heil'-
8b	|
8a	-ger
8b	Drei-
=16	=16
4a	Ko2-
4a	-nig
4d}	mehr.}
4r	.
=18	=18
*k[]	*
8r	.
{8g	{Ich
4.g	er-
8g	-ster
8g	bin
8g	der
=19	=19
8a	weiss
8a	und
8a	auch
8a	der
2cc}	scho2n,}
=20	=20
8r	.
{8g	{bei
[4g	Ta-
8g]	|
8dd	-ge
8cc	soll-
8a	|
=21	=21
8d	-tet
8g	ihr
8a	erst
8dd	mich
2dd}	sehn!}
=22	=22
4r	.
{4b	{doch
4b-	ach,
8r	.
8b-	mit
=23	=23
8a	al-
8a	-len
8a	Spe-
8a	-ze-
2cc}	-rein}
=24	=24
{8ff	{werd
8ee	|
8dd	ich
8cc	sein
8b	Tag
8dd	kein
[4cc	Ma2d-
=25	=25
8cc]	|
8a	-chen
8g	mir
8f	er-
4e}	-frein.}
4r	.
=26	=26
*k[b-e-a-]	*
{4e-	{Ich
8e-	a-
8e-	-ber
8e-	bin
8f	der
[4g	braun
=27	=27
8g]	|
8a-	und
8f	bin
8b-	der
(4ee-	lang,
4bb-)}	|}
=28	=28
8r	.
{8e-	{be-
8e-	-kannt
8g	bei
8b-	Wei-
8ee-	-bern
[4b-	wohl
=29	=29
8b-]	|
8b-	und
8an	bei
8an	Ge-
2dd}	-sang.}
=30	=30
8r	.
{8dd-	{Ich
8dd-	brin-
8dd-	-ge
[2dd-	Gold
=31	=31
8dd-]	|
8dd-	statt
8dd-	Spe-
8dd-	-ze-
4.dd-}	-rein,}
8r	.
=32	=32
{4b-	{da
8b-	werd
8b-	ich
8b-	u2-
8ee-	-ber-
8ddn	-all
8cc	will-
=33	=33
4b-	-kom-
4dd	-men
4ee-}	sein.}
4r	.
=34	=34
*k[b-e-]	*
{4dd	{Ich
8cc#	end-
8cc#	-lich
8dd	bin
8ee-	der
8b-	schwarz
8ccn	und
=35	=35
4dd	bin
4ee	der
(ee-q	klein,
2dd)}	|}
=36	=36
8r	.
{8dd	{und
8cc	mag
8dd	auch
8b-	wohl
8dd	ein-
8a	-mal
8dd	recht
=37	=37
8a	lu-
8dd	|
8cc#	-stig
8een	|
4dd}	sein.}
4r	.
=38	=38
4r	.
{4ee-	{Ich
8dd	es-
8ff	-se
4dd	gern,
=39	=39
4r	.
4ee-	ich
8dd	trin-
8ff	-ke
4dd}	gern,}
=40	=40
8r	.
{8dd	{ich
8ee-	es-
8ee-	-se,
8dd	trin-
8dd	-ke
8ee-	und
8ee-	be-
=41	=41
4dd	-dan-
8ee-	-ke
8ff	mich
2dd}	gern.}
=43	=43
2r	.
4r	.
8r	.
{8d	{Die
=44	=44
*k[f#]	*
8.g	hei-
16g	-li-
8g	-gen
8g	drei
8g	Ko2-
8f#	|
8e	-nig
8f#	sind
=45	=45
4g	wohl-
4b	-ge-
4g}	-sinnt,}
8r	.
{8d	{sie
=46	=46
4g	su-
8g	-chen
8g	die
8g	Mut-
8f#	|
8e	-ter
8f#	|
=47	=47
4g	und
4b	das
4g}	Kind,}
8r	.
{8d	{der
=48	=48
4g	Jo-
8b	-seph
8a	|
4g	fromm
8r	.
8e	sitzt
=49	=49
4g	auch
8b	da-
8a	|
4g}	-bei,}
8r	.
{8e	{der
=50	=50
8g	Ochs
8f#	|
8e	und
8f#	|
8g	E-
8f#	-sel
8e	lie-
8f#	-gen
=51	=51
4g	auf
8g	der
8b	|
4g}	Streu.}
4r	.
=52	=52
2r	.
4r	.
8r	.
{8a	{Wir
=53	=53
4a	bring-
4a	-en
4a	Myrr-
8a	-hen,
8a	wir
=54	=54
4a	bring-
8b	-en
8dd	|
4a}	Gold,}
8r	.
{8a	{dem
=55	=55
4a	Weih-
4a	-rauch
4.a	sind
8a	die
=56	=56
8dd	Da-
8cc#	|
8b	-men
8dd	|
4a}	hold;}
8r	.
{8ccn	{und
=57	=57
4b	ha-
8b	-ben
8b	wir
4.cc	Wein
8cc	von
=58	=58
4b	gu-
8.g	-tem
16g	Ge-
4dd}	-wa2chs,}
8r;	.
{16cc#	{so
16b	|
=59	=59
4a	trin-
8a	-ken
8a	wir
8a	drei
8b	so
8a	gut
8dd	als
=60	=60
4b	ih-
4cc#	-rer
4dd}	sechs.}
4r	.
=62	=62
{4d	{Da
8d	wir
8d	nun
8d	hier
8e	|
8f#	scho2-
8g	-ne
=63	=63
4b	Herrn
4a	und
4.cc}	Fraun,}
8r	.
=64	=64
{8b	{a-
8b	-ber
8b	kei-
8a	-ne
4g#	Och-
8a	-sen
8b	und
=65	=65
4fn	E-
4e	-sel
4dd}	schaun,}
8r	.
{8d	{so
=66	=66
4g	sind
4b	wir
4.g	nicht
8d	am
=67	=67
4g	rech-
4b	-ten
4.g}	Ort}
{8d	{und
=68	=68
4g	zie-
4b	-hen
6g	un-
6g	-se-
6b	-res
=69	=69
8g	We-
8f#	-ges
8g	wei-
8b	-ter
4g}	fort.}
4r	.
*-	*-
